Numix-GalliumOS/22/status/skype-status-disturb-notification.svg

<?xml version="1.0" encoding="UTF-8" standalone="no"?>
<!-- Created with Inkscape (http://www.inkscape.org/) -->

<svg
   xmlns:dc="http://purl.org/dc/elements/1.1/"
   xmlns:cc="http://creativecommons.org/ns#"
   xmlns:rdf="http://www.w3.org/1999/02/22-rdf-syntax-ns#"
   xmlns:svg="http://www.w3.org/2000/svg"
   xmlns="http://www.w3.org/2000/svg"
   xmlns:sodipodi="http://sodipodi.sourceforge.net/DTD/sodipodi-0.dtd"
   xmlns:inkscape="http://www.inkscape.org/namespaces/inkscape"
   version="1.1"
   width="22"
   height="22"
   id="svg2"
   xml:space="preserve"
   inkscape:version="0.91 r"
   sodipodi:docname="skype-status-disturb-notification.svg"><metadata
     id="metadata37"><rdf:RDF><cc:Work
         rdf:about=""><dc:format>image/svg+xml</dc:format><dc:type
           rdf:resource="http://purl.org/dc/dcmitype/StillImage" /><dc:title></dc:title></cc:Work></rdf:RDF></metadata><sodipodi:namedview
     pagecolor="#ffffff"
     bordercolor="#666666"
     borderopacity="1"
     objecttolerance="10"
     gridtolerance="10"
     guidetolerance="10"
     inkscape:pageopacity="0"
     inkscape:pageshadow="2"
     inkscape:window-width="1920"
     inkscape:window-height="1056"
     id="namedview35"
     showgrid="true"
     inkscape:zoom="30.501345"
     inkscape:cx="8.396803"
     inkscape:cy="8.1123701"
     inkscape:window-x="0"
     inkscape:window-y="24"
     inkscape:window-maximized="1"
     inkscape:current-layer="svg2"><inkscape:grid
       type="xygrid"
       id="grid4146" /></sodipodi:namedview><defs
     id="defs6" /><path
     style="fill:#54cdee;fill-opacity:1;fill-rule:nonzero;stroke:none"
     d="M 7.4257812 2.875 C 4.9816293 2.875 3 4.8592532 3 7.3066406 C 3 8.1247745 3.221404 8.8910394 3.6074219 9.5488281 C 3.5062069 10.045287 3.453125 10.559492 3.453125 11.085938 C 3.453125 15.306515 6.8712804 18.726563 11.085938 18.726562 C 11.563299 18.726562 12.029433 18.683572 12.482422 18.599609 C 13.105441 18.934943 13.81738 19.125 14.574219 19.125 C 17.018412 19.125 19 17.140992 19 14.693359 C 19 13.986224 18.833286 13.31771 18.539062 12.724609 C 18.654449 12.196236 18.716797 11.648929 18.716797 11.085938 C 18.716797 6.8654812 15.300594 3.4433594 11.085938 3.4433594 C 10.640977 3.4433594 10.203409 3.4814684 9.7792969 3.5546875 C 9.0972527 3.1244749 8.2913725 2.875 7.4257812 2.875 z M 7 10 L 15 10 L 15 12 L 7 12 L 7 10 z "
     id="path22" /><g
     id="g48"
     transform="matrix(1.25,0,0,-1.25,-129.20625,298.11625)" /></svg>

<svg xmlns="http://www.w3.org/2000/svg" viewBox="0 0 22 22">
 <path d="m 7.426 2.875 c -2.444 0 -4.426 1.984 -4.426 4.432 c 0 0.818 0.221 1.584 0.607 2.242 c -0.101 0.496 -0.154 1.01 -0.154 1.537 c 0 4.221 3.418 7.641 7.633 7.641 c 0.477 0 0.943 -0.043 1.396 -0.127 c 0.623 0.335 1.335 0.525 2.092 0.525 c 2.444 0 4.426 -1.984 4.426 -4.432 c 0 -0.707 -0.167 -1.376 -0.461 -1.969 c 0.115 -0.528 0.178 -1.076 0.178 -1.639 c 0 -4.22 -3.416 -7.643 -7.631 -7.643 c -0.445 0 -0.883 0.038 -1.307 0.111 c -0.682 -0.43 -1.488 -0.68 -2.354 -0.68 z m -0.426 7.125 l 8 0 l 0 2 l -8 0 l 0 -2 z" style="fill:#54cdee;fill-opacity:1;stroke:none;fill-rule:nonzero"/>
</svg>
